X: 1
T: My Bonny Lies Over The Ocean
M: 3/4
L: 1/8
R: waltz
K: Dmaj
A|fed edB|AF4 A|fed dcd|(e4e) A|
fed edB|AF4 A|Bed cBc|d3 dcB||
A3 d3|B3 e2d|ccc cBc|d2e f3|
A3 d3|B3 e2d|ccc cBc|d6||
